X:24
T:La ronde de carnaval
R:
S:
N:ajout d'un dbut de reprise  la deuxime mesure (ommision )
A:Champagne
G:
O:France
Z:<anamnese@laposte.net>
M:2/4
L:1/8
Q:1/4=135
K:D
D |: A>c A>E | A>c A>E | A>c e>A |1 c2 B>G :|2 A2 Az | (3ABA (3GFG | (3AGF (3EFG | A/A/ GFG | A2 E2 :|
